svg/24/file.svg

<svg width="24" height="24" viewBox="0 0 24 24" fill="currentColor" xmlns="http://www.w3.org/2000/svg"><path fill-rule="evenodd" clip-rule="evenodd" d="M20 10.25V20C20 21.1046 19.1046 22 18 22H6C4.89543 22 4 21.1046 4 20V4C4 2.89543 4.89543 2 6 2H11.75L20 10.25ZM18.5 11H13C11.8954 11 11 10.1046 11 9V3.5H6C5.72386 3.5 5.5 3.72386 5.5 4V20C5.5 20.2761 5.72386 20.5 6 20.5H18C18.2761 20.5 18.5 20.2761 18.5 20V11ZM17.1287 9.5L12.5 4.87132V9C12.5 9.27614 12.7239 9.5 13 9.5H17.1287Z"/></svg>

<svg xmlns="http://www.w3.org/2000/svg" width="24" height="24" fill="currentColor" viewBox="0 0 24 24">
  <path fill-rule="evenodd" d="M20 10.25V20a2 2 0 0 1-2 2H6a2 2 0 0 1-2-2V4a2 2 0 0 1 2-2h5.75L20 10.25Zm-1.5.75H13a2 2 0 0 1-2-2V3.5H6a.5.5 0 0 0-.5.5v16a.5.5 0 0 0 .5.5h12a.5.5 0 0 0 .5-.5v-9Zm-1.371-1.5L12.5 4.871V9a.5.5 0 0 0 .5.5h4.129Z" clip-rule="evenodd"/>
</svg>
